src/lib/packages/icons/src/assets/filled/bookmarks-star.svg

<svg width="24" height="24" viewBox="0 0 24 24" fill="none" xmlns="http://www.w3.org/2000/svg">
<path d="M19.9971 4.56995V18L19.99 17.986V18L17.6411 16.656C17.5471 16.603 17.49 16.503 17.49 16.396C17.49 16.396 17.49 8.50495 17.49 8.47095C17.449 5.98395 15.9439 4.501 13.4299 4.5H8.21704C8.04304 4.5 7.9911 4.34805 8.0061 4.17505C8.1311 2.73105 8.98506 2 10.5601 2H17.4199H17.427C19.137 2 19.9971 2.85995 19.9971 4.56995ZM16 8.57104V22L10 18.572L4 22V8.57104C4 6.85705 4.85704 6 6.57104 6H13.428C15.143 6 16 6.85705 16 8.57104ZM12.9399 11.4919L11.321 11.2581C11.203 11.2411 11.1021 11.167 11.0491 11.061L10.3479 9.646C10.2059 9.359 9.79608 9.359 9.65308 9.646L8.9519 11.061C8.8989 11.167 8.79693 11.2411 8.67993 11.2581L7.06104 11.4919C6.76404 11.5349 6.64608 11.899 6.86108 12.108L8.03101 13.244C8.11601 13.327 8.15601 13.447 8.13501 13.564L7.86694 15.1169C7.81294 15.4329 8.14496 15.674 8.42896 15.525L9.83203 14.791C9.93703 14.736 10.063 14.736 10.168 14.791L11.572 15.526C11.856 15.675 12.1871 15.434 12.1331 15.119L11.865 13.5649C11.845 13.4479 11.884 13.328 11.969 13.245L13.1389 12.109C13.3549 11.899 13.2369 11.5349 12.9399 11.4919Z" fill="currentColor"/>
</svg>

<svg xmlns="http://www.w3.org/2000/svg" width="24" height="24" fill="none"><path fill="currentColor" d="M19.997 4.57V18l-.007-.014V18l-2.349-1.344a.298.298 0 0 1-.151-.26V8.471c-.041-2.487-1.546-3.97-4.06-3.971H8.217c-.174 0-.226-.152-.21-.325C8.13 2.731 8.984 2 10.56 2h6.867c1.71 0 2.57.86 2.57 2.57ZM16 8.57V22l-6-3.428L4 22V8.571C4 6.857 4.857 6 6.571 6h6.857C15.143 6 16 6.857 16 8.571Zm-3.06 2.92-1.619-.233a.362.362 0 0 1-.272-.197l-.701-1.415a.388.388 0 0 0-.695 0l-.701 1.415a.364.364 0 0 1-.272.197l-1.619.234a.36.36 0 0 0-.2.616l1.17 1.136a.36.36 0 0 1 .104.32l-.268 1.553a.388.388 0 0 0 .562.408l1.403-.734a.363.363 0 0 1 .336 0l1.404.735a.387.387 0 0 0 .561-.407l-.268-1.554a.362.362 0 0 1 .104-.32l1.17-1.136a.36.36 0 0 0-.2-.617Z"/></svg>
